packages/core/src/svgs/tokens/branded/B2M.svg

<svg width="24" height="24" viewBox="0 0 24 24" fill="none" xmlns="http://www.w3.org/2000/svg">
<path d="M6.2921 3.81312C7.55711 2.92692 9.01066 2.34667 10.5381 2.1181C12.0657 1.88954 13.6254 2.0189 15.0944 2.496C20.3864 4.22471 23.2088 9.83416 21.5037 15.091C21.1183 16.282 20.514 17.3908 19.722 18.3601L18.7812 21.1062C18.746 21.2238 18.6459 21.2413 18.5695 21.159L17.6522 20.2359C16.3381 21.1432 14.8242 21.7198 13.2396 21.9164C11.6548 22.1128 10.046 21.9236 8.55002 21.3648C7.1204 20.8452 5.829 20.0046 4.77506 18.9077C3.72112 17.8109 2.93273 16.487 2.47049 15.0379C2.00824 13.5886 1.88446 12.0527 2.10866 10.5483C2.33284 9.0437 2.89903 7.61062 3.76371 6.35916C3.5022 6.01157 3.37454 5.58148 3.40404 5.14752C3.43354 4.71356 3.61825 4.3047 3.92438 3.99572C4.23051 3.68673 4.63764 3.49823 5.07131 3.46471C5.50498 3.43118 5.93623 3.55485 6.28623 3.81312H6.2921ZM19.2692 17.5429C19.8916 16.7187 20.3725 15.7966 20.6921 14.8145C21.4405 12.5351 21.2588 10.0524 20.1863 7.90633C19.1138 5.76025 17.2373 4.12438 14.965 3.35449L14.8358 3.31333C13.5062 2.88284 12.0955 2.76288 10.7122 2.96267C9.32899 3.16245 8.01005 3.67666 6.85658 4.4658C7.02882 4.80764 7.08907 5.19503 7.02878 5.57303C6.96851 5.95104 6.79075 6.30048 6.52075 6.57179C6.25072 6.8431 5.90215 7.02253 5.52444 7.08463C5.14673 7.14672 4.75906 7.08834 4.41639 6.91775C3.62485 8.08824 3.11688 9.42709 2.93274 10.828C2.74862 12.229 2.89341 13.6535 3.35562 14.9889C3.81782 16.3241 4.58475 17.5334 5.59559 18.5207C6.60644 19.508 7.83339 20.2462 9.17918 20.6769C10.4839 21.1087 11.8699 21.2378 13.232 21.0543C14.594 20.871 15.8966 20.38 17.0407 19.6185L16.2057 18.7776C16.1293 18.6953 16.147 18.6012 16.2587 18.5659L19.2692 17.5429ZM14.8592 11.4748C14.4571 12.0874 13.9811 12.6483 13.4421 13.1446L11.6781 14.9439H15.5355V16.7079H8.47946V15.1792L11.5135 12.4156C12.1015 11.8687 12.5013 11.4277 12.7483 11.0985C13.0011 10.7692 13.1246 10.4516 13.1246 10.1459C13.1246 9.84006 13.0129 9.5872 12.8012 9.3814C12.6916 9.27713 12.5625 9.19529 12.4212 9.14081C12.28 9.08633 12.1294 9.0602 11.978 9.06394C11.3547 9.06394 10.7726 9.47552 10.2259 10.2987L8.47946 9.33448C8.93222 8.66411 9.43202 8.15842 9.9789 7.82327C10.5256 7.47047 11.2137 7.30583 12.0604 7.30583C12.9013 7.30583 13.648 7.55866 14.283 8.06434C14.5957 8.30572 14.8459 8.61858 15.0128 8.97668C15.1794 9.33475 15.2579 9.72769 15.2415 10.1223C15.2415 10.5927 15.118 11.0455 14.8592 11.4806V11.4748Z" fill="url(#paint0_linear_364_12447)"/>
<defs>
<linearGradient id="paint0_linear_364_12447" x1="5.39286" y1="4.32781" x2="16.8086" y2="20.93" gradientUnits="userSpaceOnUse">
<stop stop-color="#0B569F"/>
<stop offset="1" stop-color="#4596F2"/>
</linearGradient>
</defs>
</svg>

<svg xmlns="http://www.w3.org/2000/svg" width="24" height="24" fill="none" viewBox="0 0 24 24">
    <path fill="url(#B2M__a)" d="M6.292 3.813a9.97 9.97 0 0 1 8.802-1.317 9.965 9.965 0 0 1 6.41 12.595c-.386 1.191-.99 2.3-1.782 3.27l-.94 2.745c-.036.118-.136.135-.212.053l-.918-.923a9.92 9.92 0 0 1-9.102 1.129A9.947 9.947 0 0 1 3.764 6.359a1.811 1.811 0 0 1 2.522-2.546zm12.977 13.73a9.3 9.3 0 0 0 1.423-2.728 9.1 9.1 0 0 0-5.727-11.46l-.13-.042a9.14 9.14 0 0 0-7.978 1.153 1.823 1.823 0 0 1-2.44 2.452 9.097 9.097 0 0 0 4.762 13.759 9.05 9.05 0 0 0 7.862-1.058l-.835-.841c-.077-.083-.059-.177.053-.212zm-4.41-6.068a9 9 0 0 1-1.417 1.67l-1.764 1.799h3.858v1.764H8.479v-1.529l3.035-2.763c.588-.547.987-.988 1.234-1.318q.378-.493.377-.952c0-.306-.112-.559-.324-.765a1.15 1.15 0 0 0-.823-.317q-.933 0-1.752 1.235l-1.747-.965q.68-1.007 1.5-1.51c.547-.354 1.235-.518 2.081-.518.841 0 1.588.253 2.223.758a2.47 2.47 0 0 1 .959 2.058c0 .47-.124.924-.383 1.359z"/>
    <defs>
        <linearGradient id="B2M__a" x1="5.393" x2="16.809" y1="4.328" y2="20.93" gradientUnits="userSpaceOnUse">
            <stop stop-color="#0B569F"/>
            <stop offset="1" stop-color="#4596F2"/>
        </linearGradient>
    </defs>
</svg>
